X: 27923
T: Mountain Road, The
R: reel
M: 4/4
K: Dmajor
F2AF BFAF|F2AF EFDE|F2AF BFAF|G2FG EDB,D|
F2AF BFAF|F2AF EFDE|FAA2 BAFB|ABde fddc||
dcdB ADFA|dcde fgfe|dcdB ADFA|G2FG EDB,D|
dcdB ADFA|dcde fgfe|dcdB ADFA|G2FG EDB,D|F4||

